!!!!SEGMENT: Sil2023-O_felix_desiderium.krn
!!!id: Sil2023
!!!AGN: Motet
!!!voices: 4
!!!COM: Andreas de Silva
!!!OTL: O felix desiderium
**kern	**kern	**kern	**kern
*part4	*part3	*part2	*part1
*staff4	*staff3	*staff2	*staff1
*I"Bassus	*I"Tenor	*I"Altus	*I"Superius
*I'B	*I'T	*I'A	*I'S
*clefF4	*clefGv2	*clefG2	*clefG2
*k[]	*k[]	*k[]	*k[]
*C:	*C:	*C:	*C:
*M2/1	*M2/1	*M2/1	*M2/1
*met(C|)	*met(C|)	*met(C|)	*met(C|)
!!section: Prima pars: O felix desiderium
!!!OMD: Prima pars: O felix desiderium
=1	=1	=1	=1
0r	0r	0r	0a
=2	=2	=2	=2
0r	0r	0a	1a
.	.	.	1d
=3	=3	=3	=3
0r	0r	1a	1r
.	.	1d	[1a
=4	=4	=4	=4
0r	0r	1r	1a]
.	.	[1a	2.cc
.	.	.	4dd
=5	=5	=5	=5
0r	0r	1a]	4ee
.	.	.	4cc
.	.	.	1ff
.	.	2.g	.
.	.	.	2ee
.	.	4a	.
=6	=6	=6	=6
1r	0r	2b	2dd
.	.	1a	1ff
[1A	.	.	.
.	.	2g	[2ee
=7	=7	=7	=7
1A]	0r	2.f	4ee]
.	.	.	4dd
.	.	.	1dd
.	.	8eL	.
.	.	8dJ	.
1A	.	2e	.
.	.	2e	2cc#i
=8	=8	=8	=8
0D	0A	2d	2dd
.	.	2.f	2.a
.	.	4e	4g
.	.	[2d	2f
=9	=9	=9	=9
0r	1A	2d]	2e
.	.	2c	1f
.	1D	1d	.
.	.	.	4e
.	.	.	4d
=10	=10	=10	=10
0A	1r	0c	[0e
.	[1A	.	.
=11	=11	=11	=11
1c	1A]	0r	0e]
[1A	2.c	.	.
.	4d	.	.
=12	=12	=12	=12
1A]	4e	0r	0r
.	4c	.	.
.	1f	.	.
2.G	.	.	.
.	2e	.	.
4A	.	.	.
=13	=13	=13	=13
2B-i	2d	0r	0r
1A	1f	.	.
2G	[2e	.	.
=14	=14	=14	=14
2.F	4e]	2r	0r
.	4d	.	.
.	1d	2d	.
8EL	.	.	.
8DJ	.	.	.
2E	.	[1g	.
2E	2c#i	.	.
=15	=15	=15	=15
0D	0d	2g]	1r
.	.	4f	.
.	.	4e	.
.	.	2f	1a
.	.	2d	.
=16	=16	=16	=16
0r	0r	2f	0dd
.	.	2g	.
.	.	1a	.
=17	=17	=17	=17
1r	1r	1.a	1.cc
1A	1e	.	.
.	.	2g	2cc
=18	=18	=18	=18
0d	0f	2f	2dd
.	.	2a	1ff
.	.	1b	.
.	.	.	4ee
.	.	.	4dd
=19	=19	=19	=19
0c	0g	0cc	0ee
=20	=20	=20	=20
1.c	1.g	1.cc	1.ee
2c	2g	2cc	2ee
=21	=21	=21	=21
2c	2g	2cc	2ee
2c	2g	2cc	2ee
2.F	[1a	[1cc	1ff
4G	.	.	.
=22	=22	=22	=22
4A	2a]	1cc]	1ee
4B	.	.	.
2c	2g	.	.
2d	2f	2a	2dd
2G	[2g	2b	[2ee
=23	=23	=23	=23
1B-X	4g]	1g	4ee]
.	4f	.	4dd
.	4e	.	1dd
.	4d	.	.
1A	2e	1a	.
.	2e	.	2cc#i
=24	=24	=24	=24
1D	2d	[0a	0dd
.	1f	.	.
2r	.	.	.
[2d	2d	.	.
=25	=25	=25	=25
2d]	1e	0a_	1r
2c	.	.	.
1d	2f	.	2r
.	2d	.	[2dd
=26	=26	=26	=26
1A	2e	0a]	2dd]
.	1f	.	2cc
1r	.	.	1dd
.	4e	.	.
.	4d	.	.
=27	=27	=27	=27
0r	1f	2r	2a
.	.	1a	1cc
.	1e	.	.
.	.	2g	2b
=28	=28	=28	=28
0r	2r	1a	2.cc
.	1a	.	.
.	.	.	8bL
.	.	.	8aJ
.	.	1e	1b
.	2g	.	.
=29	=29	=29	=29
2r	1a	2r	1a
1A	.	1c	.
.	[1e	.	1r
2G	.	2B	.
=30	=30	=30	=30
1A	1e]	2.c	2r
.	.	.	1a
.	.	8BL	.
.	.	8AJ	.
1E	2r	1B	.
.	[2e	.	2g
=31	=31	=31	=31
1.A	2e]	2A	2a
.	2e	2A	1cc
.	2A	1e	.
2G	2B	.	[2b
=32	=32	=32	=32
2A	2c	1f	4b]
.	.	.	4a
2D	2d	.	1a
1E	1B	[1e	.
.	.	.	2g#i
=33	=33	=33	=33
1r	1A	2e]	[0a
.	.	1f	.
1D	2r	.	.
.	2A	4e	.
.	.	4d	.
=34	=34	=34	=34
1.A	2c	0e	0a]
.	2c	.	.
.	2.c	.	.
2A	.	.	.
.	4d	.	.
=35	=35	=35	=35
2G	2e	1r	0r
2F	2f	.	.
1B-i	2.f	1d	.
.	8eL	.	.
.	8dJ	.	.
=36	=36	=36	=36
2A	2e	1.a	0r
4F	2f	.	.
4G	.	.	.
4A	2.c	.	.
4B	.	.	.
[2c	.	2a	.
.	4d	.	.
=37	=37	=37	=37
4c]	4e	2g	0r
4B	4d	.	.
2A	1f	2f	.
1G	.	1b-i	.
.	2e	.	.
=38	=38	=38	=38
0F	0f	2a	2r
.	.	2.cc	2a
.	.	.	2cc
.	.	4b	.
.	.	4a	2cc
.	.	4g	.
=39	=39	=39	=39
0r	0r	4f	2.cc
.	.	4g	.
.	.	4a	.
.	.	4f	4dd
.	.	2g	2ee
.	.	2a	2ff
=40	=40	=40	=40
0r	0r	2.a	2.ff
.	.	8gL	8eeL
.	.	8fJ	8ddJ
.	.	2g	2ee
.	.	4f	2ff
.	.	4g	.
=41	=41	=41	=41
0r	0r	4a	2.f
.	.	4b	.
.	.	2.cc	.
.	.	.	4g
.	.	.	4a
.	.	4b	4b
.	.	2a	4cc
.	.	.	4dd
=42	=42	=42	=42
0r	1r	2g	2ee
.	.	2f	2.ff
.	[1c	1g	.
.	.	.	4ee
.	.	.	4ee
.	.	.	4dd
=43	=43	=43	=43
1.F	1c]	1f	1ff
.	[1f	[1a	2r
2F	.	.	2cc
=44	=44	=44	=44
1.F	1f]	2a]	1cc
.	.	2a	.
.	1a	1cc	1ff
8FL	.	.	.
8G	.	.	.
8A	.	.	.
8BJ	.	.	.
=45	=45	=45	=45
1c	1g	1.cc	1.ee
1c	1g	.	.
.	.	2cc	2ee
=46	=46	=46	=46
1.c	1.g	2cc	2ee
.	.	2c	2ee
.	.	2.e	1ee
2A	2c	.	.
.	.	4f	.
=47	=47	=47	=47
2B	2d	2g	2dd
2c	2e	2.a	1cc
1d	2.f	.	.
.	.	4g	.
.	.	[2f	2b
.	4g	.	.
=48	=48	=48	=48
[0c	2a	2f]	[0cc
.	2.g	4e	.
.	.	4d	.
.	.	2e	.
.	4f	.	.
.	4e	2g	.
.	4d	.	.
=49	=49	=49	=49
1c]	1e	2g	0cc]
.	.	2g	.
2r	2r	1a	.
2c	2e	.	.
=50	=50	=50	=50
2c	2e	2g	0r
2c	2e	1a	.
1d	1f	.	.
.	.	4g	.
.	.	4f	.
=51	=51	=51	=51
2c	2g	2e	2r
2A	1c	2f	2cc
2A	.	2e	2cc
2F	[2f	[2a	2cc
=52	=52	=52	=52
1B-i	2f]	2a]	1dd
.	4e	2g	.
.	4d	.	.
2A	2f	2.a	2cc
[2c	[2e	.	2a
.	.	4g	.
=53	=53	=53	=53
4c]	4e]	2e	2a
4B	4d	.	.
2A	1c	1f	2f
1G	.	.	1b-i
.	2B-i	2e	.
=54	=54	=54	=54
[0F	1c	2f	0a
.	.	2c	.
.	2r	2.f	.
.	2c	.	.
.	.	4g	.
=55	=55	=55	=55
0F]	2.f	2a	2r
.	.	2.f	2a
.	4g	.	.
.	2a	.	2.cc
.	.	4g	.
.	2f	2a	.
.	.	.	4dd
=56	=56	=56	=56
2r	2g	2e	2ee
2D	2.a	2d	2.ff
2.F	.	2c	.
.	4g	.	4ee
.	2f	[2a	2dd
4G	.	.	.
=57	=57	=57	=57
2A	2e	2a]	2cc
2B	2d	2g	1dd
1A	1e	1a	.
.	.	.	2cc#i
=58	=58	=58	=58
2D	2d	1r	2dd
1d	1f	.	2a
.	.	2r	2b
2c	[2e	2e	2cc
=59	=59	=59	=59
1B-X	2e]	2f	1dd
.	2d	2g	.
1A	2e	1a	4cc
.	.	.	4dd
.	2A	.	4ee
.	.	.	4cc
=60	=60	=60	=60
0r	2B	2g	2dd
.	2c	1a	1cc
.	1d	.	.
.	.	4g	2b
.	.	4f	.
=61	=61	=61	=61
2r	1c	2g	2cc
2A	.	2a	2ee
2B	1r	2d	2dd
2c	.	[2g	2cc
=62	=62	=62	=62
1d	0r	4g]	4b
.	.	4f	4a
.	.	1f	4g
.	.	.	4f
1c	.	.	2.g
.	.	2e	.
.	.	.	4a
=63	=63	=63	=63
2r	2r	2f	1a
1F	1A	1d	.
.	.	.	1r
2G	2B	2e	.
=64	=64	=64	=64
2A	2c	2.f	2r
2F	2A	.	1dd
.	.	4e	.
2G	2B	2d	.
2E	2G	2c	2ee
=65	=65	=65	=65
1D	2A	2d	2.ff
.	1d	1f	.
.	.	.	4ee
1r	.	.	2dd
.	2e	2g	2cc
=66	=66	=66	=66
0r	2.f	2.a	2dd
.	.	.	1a
.	4e	4g	.
.	2d	2f	.
.	2c	2e	2cc
=67	=67	=67	=67
2r	2d	2d	4b
.	.	.	4a
1D	1A	1f	1a
2G	2B	2e	2g
=68	=68	=68	=68
2F	2c	1f	[0a
2D	2d	.	.
2A	2d	1e	.
2A	2c	.	.
=69	=69	=69	=69
2D	2d	2r	1a]
2.A	1c	1e	.
.	.	.	1r
4G	.	.	.
4F	2c	[2f	.
4E	.	.	.
=70	=70	=70	=70
2D	2d	2f]	2r
2C	2e	2g	2cc
2D	4d	2f	4b
.	4c	.	4a
2F	4B	2d	[2a
.	4A	.	.
=71	=71	=71	=71
1E	1B	1e	2a]
.	.	.	2g#i
2r	1A	2r	1a
[2A	.	[2e	.
=72	=72	=72	=72
4A]	2r	2e]	2r
4G	.	.	.
4F	2c	1f	1a
4E	.	.	.
2D	2d	.	.
2C	2e	2g	2cc
=73	=73	=73	=73
2D	4d	2f	4b
.	4c	.	4a
2F	4B	2d	1a
.	4A	.	.
1E	1B	2e	.
.	.	[2e	2g#i
=74	=74	=74	=74
2r	2.A	4e]	[0al
.	.	4d	.
2.A	.	4c	.
.	4B	4B	.
.	2c	2A	.
4G	.	.	.
4F	2d	[2A	.
4E	.	.	.
=75	=75	=75	=75
2D	2f	2A]	0a_
2C	2e	2A	.
1D	1d	1f	.
=76	=76	=76	=76
00Al	00cl	00el	00a]
==	==	==	==
*-	*-	*-	*-
!!!system-decoration: [*]
!!!RDF**kern: i = editorial accidental
!!!RDF**kern: l = terminal long
!!!ENC: Benjamin Ory
!!!END: 2024/12/20
!!!EED: Benjamin Ory
!!!EEV: 2025/02/18
!!!YEC: Copyright 2025 Benjamin Ory, All Rights Reserved
!!!ONB: Translated from MusicXML on 2025/02/18